!! 00000] TT[WS
!!!OTL: Dawoge
!!!ARE: Asia, China, Shanxi Taiyuan
!! Ethnic Group: Han
!! WII, 266
!!!SCT: J0798
!!!YEM: Copyright 1995, estate of Helmut Schaffrath.
**kern
*ICvox
*Ivox
*M2/4
*k[f#]
*G:
{8a
8b
=1
8b
16a
16b
8g
16f#
16e
=2
8d
16B
16d
4e}
=3
{8a
16b
16a
4g
=4
8e
16a
16b
8a
16f#
16e
=5
4d
4d}
=6
{8.a
16b
8b
8e
=7
4d
4d
=8
8.d
16e
8f#
8e
=9
4d
4d}
=10
{8a
8b
8b
16a
16b
=11
8a
16f#
16e
4d
=12
8a
16b
16a
4g
=13
8a
8a
8g
16f#
16e
=14
4d
4d}
=15
{8.a
16b
8a
8e
=16
4d
4d
=17
8e
8a
8g
8e
=18
4d
4d}
=19
{4b
8a
8b
=20
4g
4e
=21
4a
8b
8b
=22
4a
8.g
16e
=23
8d
4d
8dd}
=24
{4b
4b
=25
4d
4d
=26
4e
8g
8e
=27
4d
4d}
=28
{4e
8a
8b
=29
8a
8g
4e
=30
8.dd
16b
8d
8e
=31
4d
4d
=32
8e
8a
8g
8e
=33
4d
4d}
=34
{8.d
16e
8f#
8e
=35
4d
4d
=36
4b
8a
8b
=37
4g
4e
=38
4a
8a
8b
=39
4a
8f#
8e
=40
4d
4d}
=41
{4g
8g
8e
=42
4d
4r}
==
!!!AGN: Haozi. Laodong, Dawo, Xinminge
!!!ONB: ESAC (Essen Associative Code) Database: CHINA
!!!AMT: simple duple
!!!AIN: vox
!!!EED: Helmut Schaffrath
!!!EEV: 1.0
*-
